dist/images/facebook.svg

<svg width="32" height="32" viewBox="0 0 32 32" fill="none" xmlns="http://www.w3.org/2000/svg">
<path d="M16.0013 2.7207C8.66797 2.7207 2.66797 8.70737 2.66797 16.0807C2.66797 22.7474 7.54797 28.2807 13.9213 29.2807V19.9474H10.5346V16.0807H13.9213V13.134C13.9213 9.78737 15.908 7.94737 18.9613 7.94737C20.4146 7.94737 21.9346 8.2007 21.9346 8.2007V11.494H20.2546C18.6013 11.494 18.0813 12.5207 18.0813 13.574V16.0807H21.788L21.188 19.9474H18.0813V29.2807C21.2232 28.7845 24.0842 27.1814 26.1479 24.7608C28.2115 22.3402 29.3418 19.2616 29.3346 16.0807C29.3346 8.70737 23.3346 2.7207 16.0013 2.7207Z" fill="#212627"/>
</svg>

<svg width="32" height="32" fill="none" xmlns="http://www.w3.org/2000/svg"><path d="M16.001 2.72c-7.333 0-13.333 5.987-13.333 13.36 0 6.667 4.88 12.2 11.253 13.2v-9.333h-3.386v-3.866h3.386v-2.947c0-3.347 1.987-5.187 5.04-5.187 1.454 0 2.974.254 2.974.254v3.293h-1.68c-1.654 0-2.174 1.027-2.174 2.08v2.507h3.707l-.6 3.866h-3.107v9.334a13.334 13.334 0 0011.254-13.2c0-7.374-6-13.36-13.334-13.36z" fill="#212627"/></svg>
